X: 6
T: The Ash Grove
R: waltz
M: 3/4
L: 1/8
K: Gmaj
|: D2 | G2 B2 dc | B2 G2 G2 | A2 cBAG | F2 D2 D2 |
G2 BA GF | E2 C2 E2 | D2 G2 F2 | G4 :|
Bc | d2 Bcde | d2 c2 B2 | c2 AB cd | c2 B2 A2 | B2 GABc |
B2 A2 G2 | F2 d2 ^c2 | d4 D2 | G2 B2 dc | B2 G2 G2 |
A2 cBAG | F2 D2 D2 | G2 BAGF | E2 C2 E2 | D2 G2 F2 | G4 |]


Tune 997	Setting 14205

